X:2
T:Highland Cathedral (Bernhard)
R:strathspey
M:4/2
L:1/4
K:Ebmaj
%%score T1 T2 B1 B2
V:T1           clef=treble-8  name="v1"   snm="v1"
V:T2           clef=treble-8  name="v2"   snm="v2"
V:B1  middle=D, clef=bass      name="Basso I"    snm="B.I"  transpose=-24
V:B2  middle=D, clef=bass      name="Basso II"   snm="B.II" transpose=-24
[V:T1] |: E3      F/2G/2 FE B,E   | F3      G G4            | G3     A/2B/2 AG FE    | F3       G B,4               |
          C3      D/2E/2 EB, DE   | B3      A G4            | F3     G/2A/2 GE B,E   | F3       E E4               :|
       |: D3      B, F3 D/2F/2    | G3      D D3 C          | B,3    C/2D/2 C4       | D3       E/2F/2 C4          :|
          D3      B, F3 D/2F/2    | G3      D D3C           | B,2    B,/2C/2D C2>B,2 | (B,4B,4)                     |]
[V:T2] |: B,2     B,2 B,4         | D2      D2 E4           | E4     E4              | F4       F4                  |
          E4      E4              | F2      F2 E4           | F4     E4              | D4       B,4                :|
       |: B,4     C4              | B,4     B,4             | G,4    F2F2            | F4       F2 F2              :|
          B,4     C4              | B,4     B,4             | G,4    F4              | [EB]2    [EB]2 [EB]2 [EB]2   |]
[V:B1] |  [B,G,]2 [B,G,]2 [B,G,]4 | [G,B,]2 [G,B,]2 [E,B,]4 | [G,C]4 [G,e,]4         | [=A,C]4  [F,D]4              |
[A,C]4
  
